X: 1679
T: Another Jig Will Do
R: slip jig
M: 9/8
K: Dmajor
|:ABA A2 G F2 G|ABA AGF ~G3|ABA A2 G F2 G|A d d2 c d3:|
A2 g f2 d e2 c|A2 B =c2 d B2G|A2 g f2 d e2 c|A2 d d2 c d3|
A2 g f2 d e2 c|A2 B =c2 d B2G|ABA A2 G F2 G|A2 d d2 c d3||

